!!!COM:	Bach, Johann Sebastian
!!!CDT:	1685/02/21/-1750/07/28/
!!!OTL@@DE:	In allen meinen Taten
!!!SCT:	BWV 244/37
!!!PC#:	50
!!!AGN:	chorale
**kern	**kern	**kern	**kern
*ICvox	*ICvox	*ICvox	*ICvox
*Ibass	*Itenor	*Ialto	*Isoprn
*I"Bass	*I"Tenor	*I"Alto	*I"Soprano
*	*oclefC4	*oclefC3	*oclefC1
*clefF4	*clefGv2	*clefG2	*clefG2
*k[b-]	*k[b-]	*k[b-]	*k[b-]
*F:	*F:	*F:	*F:
*M4/4	*M4/4	*M4/4	*M4/4
*met(c)	*met(c)	*met(c)	*met(c)
*MM100	*MM100	*MM100	*MM100
4F	4c	4f	4a
=1	=1	=1	=1
4B-	4d	4d	4f
8AL	8cL	4e	4g
8GJ	8B-J	.	.
4.F	4.A	8fL	8aL
.	.	8gJ	8b-J
.	.	4a	4cc
8E	8G	.	.
=2	=2	=2	=2
4D	4F	4a	2b-
4E	4c	4g	.
4F;	4c;	4f;	4a;
8FL	4c	4f	8aL
8GJ	.	.	8b-J
=3	=3	=3	=3
4A	4c	8fL	4cc
.	.	8eJ	.
8AAL	4c	8fL	4cc
8BB-J	.	8gJ	.
4C	4c	8eL	4g
.	.	8dJ	.
4AA	8cL	4c	8aL
.	8BJ	.	8gJ
=4	=4	=4	=4
2D	8AL	4c	2f
.	8GJ	.	.
.	4F	4B	.
4C;	4G;	4c;	4e;
4C	4B-X	4e	4c
=5	=5	=5	=5
4D	4A	4d	4f
4E	4G	4c	4g
4F	4F	4c	8aL
.	.	.	16b-L
.	.	.	16ccJJ
4BB-	4F	4d	8b-L
.	.	.	8aJ
=6	=6	=6	=6
2.C;	2.c;	2.e;	2.g;
4C#	4A	4e	4a
=7	=7	=7	=7
4D	4A	4d	4f
4E	4G	4c	4g
4F	8FL	4c	8aL
.	8GJ	.	8b-J
4F#	4A	4d	4cc
=8	=8	=8	=8
4G	8GL	4d	2b-
.	8AJ	.	.
4GG	8B-L	4g	.
.	8cJ	.	.
4D;	4d;	4f#;	4a;
4d	4d	4f	8aL
.	.	.	8b-J
=9	=9	=9	=9
8AL	8cL	4f	4cc
8G	8B-	.	.
8A	8c	4f	4cc
8B-J	8dJ	.	.
4c	4e	8eL	4g
.	.	8dJ	.
8FL	4f	4c	8aL
8EJ	.	.	8gJ
=10	=10	=10	=10
8DL	8FL	4c	2f
8CJ	8AJ	.	.
4D	8GL	4B	.
.	8FJ	.	.
4C;	4G;	4c;	4e;
4BB-X	4E	4G	4c
=11	=11	=11	=11
4AA	8FL	4c	4f
.	8cJ	.	.
4GG	8dL	4B-X	4g
.	8eJ	.	.
4FF	8fL	8AL	4a
.	8cJ	8cJ	.
4D	8B-L	4f	8gL
.	8FJ	.	16aL
.	.	.	16b-JJ
=12	=12	=12	=12
8CL	4.c	4f	4a
8BB-J	.	.	.
4C	.	4e	4g
.	8B-	.	.
4FF;	4A;	4c;	4f;
==	==	==	==
*-	*-	*-	*-
!!!YOR1: 371 vierstimmige Choralges&auml;nge von Johann Sebastian Bach, 
!!!YOR2: 4th ed. by Alfred D&ouml;rffel (Leipzig: Breitkopf und H&auml;rtel, 
!!!YOR2: c.1875). 178 pp. Plate "V.A.10".  reprint: J.S. Bach, 371 Four-Part 
!!!YOR4: Chorales (New York: Associated Music Publishers, Inc., c.1940).
!!!SMS: B&H, 4th ed, Alfred D&ouml;rffel, c.1875, plate V.A.10
!!!EED:  Craig Stuart Sapp
!!!EEV:  2009/05/22
